X: 8588
T: Cronin's
R: reel
M: 4/4
K: Cmajor
|:G,|CB,CD EGGB|cded cAAG|AcGc Aaa^f|1 gecd edd:|2 gedf ecc||
|:f|g^fga geec|fedc eccG|AcGc Aa^ga|1 ge (3Bcd edd:|2 ge (3def ecc||

